X: 39
T:Far From Home
% Nottingham Music Database
S:Les, via EF
M:4/4
L:1/4
K:G
P:A
D/2|"G"G/2E/2D/2E/2 GG/2A/2|"G"BB/2A/2 "D7"B/2c/2d|"G"G/2E/2D/2E/2 GG/2B/2|\
"Am"A/2G/2A/2B/2 "D7"A/2G/2E/2F/2|
"G"G/2E/2D/2E/2 GG/2A/2|"G"BB/2A/2 "G7"B/2c/2d|"C"e/2d/2e/2f/2 "G"g/2e/2d/2c/2\
|"D7"B/2G/2A/2F/2 "G"G3/2:|
P:B
d/2|"Em"gg/2e/2 "Bm"ff/2d/2|"Em"e/2d/2e/2f/2 "Bm"e/2d/2B|"Em"g/2e/2d/2B/2 GB|\
"Am"A/2G/2A/2B/2 "D7"A/2G/2E/2F/2|
"G"G/2E/2D/2E/2 GG/2A/2|"G"BB/2A/2 "G7"B/2c/2d|"C"e/2d/2e/2f/2 "G"g/2e/2d/2c/2\
|"D7"B/2G/2A/2F/2 "G"G3/2:|<end>
<start>
